icons/book-open.svg

<svg width="24" height="24" viewBox="0 0 24 24" fill="none" xmlns="http://www.w3.org/2000/svg">
<path d="M11.9994 11.6778C12.0233 14.3676 12 17.0585 12 19.7484L11.9989 19.75C10.5445 17.6551 9.56346 17.55 6.92248 17.55H3.77596C3.15488 17.55 2.84489 17.55 2.60712 17.4337C1.96049 17.118 2.00048 16.4492 2.00048 15.8433V6.45667C2.00048 5.21613 2.40491 4.75 3.77818 4.75H6.66693C8.53351 4.75 9.4668 4.75 10.1801 5.0988C11.7834 5.88299 11.9796 9.44178 11.9994 11.6778C12.019 9.44178 12.2146 5.88299 13.8188 5.0988C14.5321 4.75 15.4665 4.75 17.3331 4.75H20.2219C21.594 4.75 21.9995 5.21507 21.9995 6.45667V15.8433C21.9995 16.4481 22.0384 17.118 21.3929 17.4337C21.1563 17.55 20.8452 17.55 20.2241 17.55H17.0764C14.4361 17.55 13.4549 17.6545 12 19.7484" stroke="black" stroke-width="2" stroke-linecap="round" stroke-linejoin="round"/>
</svg>

<svg xmlns="http://www.w3.org/2000/svg" width="24" height="24" viewBox="0 0 24 24" fill="none" stroke="currentColor" stroke-width="2" stroke-linecap="round" stroke-linejoin="round">
<path d="M12 11.678c.023 2.69 0 5.38 0 8.07l-.001.002c-1.455-2.095-2.436-2.2-5.077-2.2H3.776c-.621 0-.931 0-1.169-.116-.647-.316-.607-.985-.607-1.59V6.456c0-1.24.405-1.707 1.778-1.707h2.889c1.867 0 2.8 0 3.513.349 1.603.784 1.8 4.343 1.82 6.579.019-2.236.215-5.795 1.819-6.58.713-.348 1.647-.348 3.514-.348h2.889c1.372 0 1.777.465 1.777 1.707v9.386c0 .605.04 1.275-.606 1.59-.237.117-.548.117-1.169.117h-3.148c-2.64 0-3.621.104-5.076 2.198"/>
</svg>
